icons/exercise_bicycle.svg

<svg width="48" height="48" viewBox="0 0 48 48" fill="none" xmlns="http://www.w3.org/2000/svg">
<path fill-rule="evenodd" clip-rule="evenodd" d="M33 22C29.7397 22 26.9976 24.2299 26.2205 27.2493L24.2836 26.7508C25.2826 22.8692 28.805 20 33 20C37.9706 20 42 24.0295 42 29C42 33.9706 37.9706 38 33 38C29.987 38 27.32 36.5184 25.6881 34.2485L27.312 33.081C28.5843 34.8508 30.6579 36 33 36C36.866 36 40 32.866 40 29C40 25.134 36.866 22 33 22Z" fill="black"/>
<path fill-rule="evenodd" clip-rule="evenodd" d="M32.5798 28H14.0196C11.7996 28 10 29.7997 10 32.0196C10 34.6902 12.5561 36.6183 15.1239 35.8846L32.97 30.7857C33.5797 30.6115 34 30.0543 34 29.4202C34 28.6359 33.3642 28 32.5798 28ZM14.0196 26C10.6951 26 8 28.6951 8 32.0196C8 36.0189 11.8279 38.9063 15.6733 37.8076L33.5194 32.7088C34.9877 32.2893 36 30.9472 36 29.4202C36 27.5313 34.4687 26 32.5798 26H14.0196Z" fill="black"/>
<path fill-rule="evenodd" clip-rule="evenodd" d="M35.4 36.2C35.8418 35.8687 36.4686 35.9582 36.8 36.4L39.5 39.9998H41C41.5523 39.9998 42 40.4476 42 40.9998C42 41.5521 41.5523 41.9998 41 41.9998H36C35.4477 41.9998 35 41.5521 35 40.9998C35 40.4476 35.4477 39.9998 36 39.9998H36.9999L35.2 37.6C34.8686 37.1582 34.9582 36.5314 35.4 36.2Z" fill="black"/>
<path fill-rule="evenodd" clip-rule="evenodd" d="M13.6 36.2C14.0418 36.5314 14.1314 37.1582 13.8 37.6L10.8 41.6C10.4686 42.0419 9.84183 42.1314 9.4 41.8C8.95817 41.4687 8.86863 40.8419 9.2 40.4L12.2 36.4C12.5314 35.9582 13.1582 35.8687 13.6 36.2Z" fill="black"/>
<path d="M7 41C7 40.4477 7.44772 40 8 40H13C13.5523 40 14 40.4477 14 41C14 41.5523 13.5523 42 13 42H8C7.44772 42 7 41.5523 7 41Z" fill="black"/>
<path d="M14 32C14 31.4477 14.4477 31 15 31H19C19.5523 31 20 31.4477 20 32C20 32.5523 19.5523 33 19 33H15C14.4477 33 14 32.5523 14 32Z" fill="black"/>
<path d="M16 32C16 33.1046 15.1046 34 14 34C12.8954 34 12 33.1046 12 32C12 30.8955 12.8954 30 14 30C15.1046 30 16 30.8955 16 32Z" fill="black"/>
<path fill-rule="evenodd" clip-rule="evenodd" d="M10.7017 18.0455C11.2289 17.8808 11.7897 18.1746 11.9545 18.7017L14.4545 26.7016C14.6192 27.2288 14.3254 27.7897 13.7983 27.9544C13.2711 28.1191 12.7103 27.8253 12.5455 27.2982L10.0455 19.2983C9.88079 18.7712 10.1746 18.2103 10.7017 18.0455Z" fill="black"/>
<path fill-rule="evenodd" clip-rule="evenodd" d="M35.3431 6.06073C35.8619 6.25023 36.1288 6.82438 35.9393 7.34314L34.9393 10.0807C34.8409 10.3501 34.6317 10.5642 34.3647 10.6688L30.7771 12.0738L33.9383 20.6542C34.1293 21.1724 33.8639 21.7473 33.3457 21.9383C32.8275 22.1292 32.2526 21.8639 32.0617 21.3456L28.5617 11.8457C28.3735 11.3349 28.6284 10.7674 29.1353 10.5689L33.2154 8.97094L34.0607 6.65692C34.2502 6.13816 34.8244 5.87124 35.3431 6.06073Z" fill="black"/>
<path fill-rule="evenodd" clip-rule="evenodd" d="M13.4375 16.7537L8.93499 16.3035C8.43439 16.2534 8 16.6466 8 17.1497C8 17.6193 8.38072 18 8.85037 18H13.3753C13.7203 18 14 17.7203 14 17.3753C14 17.0544 13.7568 16.7857 13.4375 16.7537ZM9.134 14.3134C7.45602 14.1456 6 15.4633 6 17.1497C6 18.7239 7.27616 20 8.85037 20H13.3753C14.8249 20 16 18.8249 16 17.3753C16 16.0269 14.9782 14.8978 13.6365 14.7637L9.134 14.3134Z" fill="black"/>
</svg>

<svg
  xmlns="http://www.w3.org/2000/svg"
  width="24"
  height="24"
  viewBox="0 0 24 24"
  fill="none"
  stroke="currentColor"
  stroke-width="2"
  stroke-linecap="round"
  stroke-linejoin="round"
>
  <path
    fill-rule="evenodd"
    d="M33 22a7 7 0 0 0-6.78 5.25l-1.936-.5a9 9 0 1 1 1.404 7.498l1.624-1.167A7 7 0 1 0 33 22"
    clip-rule="evenodd"
  />
  <path
    fill-rule="evenodd"
    d="M32.58 28H14.02A4.02 4.02 0 0 0 10 32.02c0 2.67 2.556 4.598 5.124 3.865l17.846-5.1A1.42 1.42 0 0 0 32.58 28m-18.56-2A6.02 6.02 0 0 0 8 32.02c0 3.999 3.828 6.886 7.673 5.788l17.846-5.1A3.42 3.42 0 0 0 32.58 26z"
    clip-rule="evenodd"
  />
  <path
    fill-rule="evenodd"
    d="M35.4 36.2a1 1 0 0 1 1.4.2l2.7 3.6H41a1 1 0 0 1 0 2h-5a1 1 0 1 1 0-2h1l-1.8-2.4a1 1 0 0 1 .2-1.4"
    clip-rule="evenodd"
  />
  <path
    fill-rule="evenodd"
    d="M13.6 36.2a1 1 0 0 1 .2 1.4l-3 4a1 1 0 1 1-1.6-1.2l3-4a1 1 0 0 1 1.4-.2"
    clip-rule="evenodd"
  />
  <path d="M7 41a1 1 0 0 1 1-1h5a1 1 0 1 1 0 2H8a1 1 0 0 1-1-1" />
  <path d="M14 32a1 1 0 0 1 1-1h4a1 1 0 1 1 0 2h-4a1 1 0 0 1-1-1" />
  <path d="M16 32a2 2 0 1 1-4 0 2 2 0 0 1 4 0" />
  <path
    fill-rule="evenodd"
    d="M10.702 18.046a1 1 0 0 1 1.252.656l2.5 8a1 1 0 0 1-1.908.596l-2.5-8a1 1 0 0 1 .656-1.252"
    clip-rule="evenodd"
  />
  <path
    fill-rule="evenodd"
    d="M35.343 6.06a1 1 0 0 1 .596 1.283l-1 2.738a1 1 0 0 1-.574.588l-3.588 1.405 3.161 8.58a1 1 0 1 1-1.876.692l-3.5-9.5a1 1 0 0 1 .573-1.277l4.08-1.598.846-2.314a1 1 0 0 1 1.282-.596"
    clip-rule="evenodd"
  />
  <path
    fill-rule="evenodd"
    d="m13.438 16.754-4.503-.45A.85.85 0 1 0 8.85 18h4.525a.625.625 0 0 0 .063-1.246m-4.304-2.44A2.85 2.85 0 1 0 8.85 20h4.525a2.625 2.625 0 0 0 .261-5.236z"
    clip-rule="evenodd"
  />
</svg>
